src/icons/svg/account.svg

<?xml version="1.0" standalone="no"?><!DOCTYPE svg PUBLIC "-//W3C//DTD SVG 1.1//EN" "http://www.w3.org/Graphics/SVG/1.1/DTD/svg11.dtd"><svg t="1557389141563" class="icon" style="" viewBox="0 0 1024 1024" version="1.1" xmlns="http://www.w3.org/2000/svg" p-id="5443" xmlns:xlink="http://www.w3.org/1999/xlink" width="128" height="128"><defs><style type="text/css"></style></defs><path d="M793.6 316.991454C793.6 153.703982 661.792629 21.333333 499.2 21.333333 336.607371 21.333333 204.8 153.703982 204.8 316.991454 204.8 480.278923 336.607371 612.649572 499.2 612.649572 661.792629 612.649572 793.6 480.278923 793.6 316.991454ZM256 316.991454C256 182.101803 364.88435 72.752137 499.2 72.752137 633.51565 72.752137 742.4 182.101803 742.4 316.991454 742.4 451.881103 633.51565 561.230769 499.2 561.230769 364.88435 561.230769 256 451.881103 256 316.991454Z" p-id="5444"></path><path d="M0 998.290598 0 1024 25.6 1024 486.4 1024 998.4 1024 1024 1024 1024 998.290598C1024 767.462671 787.090923 561.230769 512 561.230769 495.448045 561.230769 478.989086 561.900892 462.660538 563.232578 448.568439 564.381869 485.255599 576.786276 486.4 590.938596 501.350035 589.719337 496.831226 612.649572 512 612.649572 760.310844 612.649572 972.8 797.623669 972.8 998.290598L998.4 972.581197 486.4 972.581197 25.6 972.581197 51.2 998.290598C51.2 861.757427 137.013906 736.945338 275.263548 667.439085 287.906261 661.082846 293.024384 645.637353 286.695191 632.94061 280.366001 620.243866 264.986234 615.103872 252.34352 621.460111 97.581613 699.268053 0 841.195691 0 998.290598Z" p-id="5445"></path></svg>

<svg class="icon" viewBox="0 0 1024 1024" xmlns="http://www.w3.org/2000/svg" width="128" height="128"><defs><style/></defs><path d="M793.6 316.991c0-163.287-131.807-295.658-294.4-295.658S204.8 153.704 204.8 316.991c0 163.288 131.807 295.659 294.4 295.659S793.6 480.279 793.6 316.99zm-537.6 0c0-134.89 108.884-244.239 243.2-244.239 134.316 0 243.2 109.35 243.2 244.24 0 134.89-108.884 244.239-243.2 244.239-134.316 0-243.2-109.35-243.2-244.24z"/><path d="M0 998.29V1024h1024v-25.71c0-230.827-236.91-437.06-512-437.06-16.552 0-33.01.67-49.34 2.003-14.092 1.149 22.596 13.553 23.74 27.706 14.95-1.22 10.431 21.71 25.6 21.71 248.31 0 460.8 184.975 460.8 385.642l25.6-25.71H25.6l25.6 25.71c0-136.534 85.814-261.346 224.064-330.852 12.642-6.356 17.76-21.802 11.431-34.498-6.329-12.697-21.709-17.837-34.351-11.48C97.582 699.267 0 841.195 0 998.29z"/></svg>
